X:537
T:Paddy Fahy's
R:jig
C:Paddy Fahey (1916-2019)
H:Cf. #507
Z:id:hn-jig-537
M:6/8
L:1/8
K:Gdor
DGA _B2c | _BAG A^FD | d=Bd cAc | =BAG ^FDC |
DGA =B2d | c=Bc ABc | d^fa fdc |1 =BG^F G2F :|2 =BG^F GBd ||
|: g2a _bag | ^fga gfd | g2a _bag | ^faf g2a |
gd=B GBd | c=Bc ABc | d^fa fdc |1 =BG^F GBd :|2 =BG^F G2F ||

